X: 33728
T: Rathlin Island
R: reel
M: 4/4
K: Bminor
f2 ec fBBc|f2 ec BAce|f2 ec fBBc|faec cB B2|
f2 ec fBBc|f2 ec BAce|f2 ec fBBc|faec cBBA||
B3c FAcA|BABc effe|B2 Bc FAce|faec cBBA|
B3c FAcA|BABc effe|B2 Bc FAce|faec cB B2||

